X:1
T:Jubilate Deo
T:Natale Monferato
T:Source : Motetti a voce sola di Natale Monferato---Libro terzo---Venetia---C.Bortoli---1666. Editor : André Vierendeels (07/02/17).
T:Notes : Original clefs : C3, F4 Dotted bracket indicates black notes 
T:Jubilate Deo
T:©
T:©
T:©
T:©
T:©
T:©
T:©
C:Natale Monferato
Z:©
%%score 1 2
L:1/8
Q:1/4=120
M:3/2
K:C
V:1 treble nm="Alto" snm="A"
V:2 bass nm="MusicXML Part"
V:1
 G2 G2 G2 G2 G4 | E2 G4 G2 G3 F- | E8 z4 :| E2 D2 E2 C2 D4 | C2 E4 ^F2 G2 D2 | G2 A2 B2 A2 A4 | %6
w: Ju- bi- la- te De-|o, Iu- bi- la- te,|_|iu- bi- la- ta De-|o, o- mnis ter- ra,|iu- bi- la- te De-|
 G4 z2 G2 G2 A2 | F2 E2 D2 E2 F4 | E4 z2 G2 A2 G2 | F2 E2 E2 FE D3 C |"^piano" C4 z2 G2 A2 G2 | %11
w: o, ser- vi- te|Do- mi- no, ser- vi-|te, ser- vi- te|in lae- ti- * * * ti-|a ser- vi- te|
 F2 E2 E2 FE D3 C | C4 z4 z4 ||[M:4/4]"^Adagio" z2 EF GAGF | ECGA FEFG | ECDD E F/E/ D2 | %16
w: in lae- ti- * * * ti-|a,|Ab ae- ter- no iam cre-|a- ta an- te So- lem- ni _|da- ta San- cta Pa- rens _ _|
 z EDC DG, GA/G/ | F3 E E2 CD | EF DE C2 CD | EF DE C2 z2 | C/G,/A,/B,/ C/D/E/F/ G F/E/ D2 | %21
w: in- vi- o- la- ta, ho- di- e,|ho- di- e Vir- go|na- * ta _ est, Vir- go|na- * ta _ est,|cae- * * * * * * * * li _ _|
 z E G3 GAB | GGGG GFFF | FEEE EEED | EE GA/G/ F3 E | E2 CD EF DE | C2 CD EF DE | %27
w: e- ni- xa cre- a-|to- rem, mun- di lu- cem et _|_ _ or- bis ter- rae Sal- va-|to- rem, ho- di- e, ho- di-|e Vir- go na- * ta _|est, Vir- go na- * ta _|
 C2 z2 !fermata!z4 ||"^IUBILATE DEO""^tu\nsupra" z8 | z2 AA AAA^G | AAE^F GAFG | EEGA FE E2 | %32
w: est.||Ve- re vi- rum non co-|gno- vit nec per Vi- rum lu- cem|no- vit a- do- ra- * vit|
 z2 AB ^G>F E2 | z2 AE ^F^GAA | A3 ^G A2 EF/G/ | F3 E E2 CD | EF DE C2 CD | EF DE C2 z2 | %38
w: quem a- gno- vit, _|a- do- ra- vit quem a-|gno- vi, _ ho- di- e,|ho- di- e, Vir- go|na- * ta _ est, Vir- go|na- * ta _ est,|
 z2 EF D2 D2 | z G2 F/E/ F2 D2 | z2 FG E2 E2 | z2 AB G>^F E2 | z2 E^F G2 G2 | z GAB B A3 | %44
w: De- i na- ta|spon- sa et ma- ter|cu- ius na- tus|est et Pa- ter, _|De- us Pa- ter|cu- i non Ma _|
 G2 GA/G/ A3 G | G2 AB BA AB | G2 GA AG GA | G2 GA/G/ F3 E | E2 CD ED DE |"^piano" C2 CD ED DE | %50
w: ter, ho- di- e, ho- di-|e Vir- go na- * ta _|est, Vir- go na- * ta _|est, ho- di- e, ho- di-|e, Vir- go na- * ta _|est, Vir- go na- * ta _|
"^IUBILATE\n         DEO\n\n   ut supra" C2 z2 z4 || C2 DD EF/G/ ^FG/A/ | GEGA ^FDGA | %53
w: est|Vir- go as- sum- * * * * *|* pta, Vit- go pi- a, Vir- go|
 BA A2 z2 GC | F/E/F/G/ F2 E2 CD | EDDC DDDE | FEED EE z D | E^F G2 z AAB | A2 AB/A/ G3 F | %59
w: cle- * mens, O Ma-|ri- * * * * a nunc de-|fen- de nos in vi- a, nunc de-|fen- de nos in vi- a, ab|e- o qui nos con- tra|est, ho- di- e, ho- di-|
 E2 GA BA AB | G2 GA BA AB | G2 GA/G/ F3 E | E2 CD ED DE |"^piano" C2 CD ED DE | C2 z2 z4 | %65
w: e, Vir- go na- * ta _|est, Vir- go na- * ta _|est, ho- di- e, ho- di-|e, Vir- go na- * ta _|est, Vir- go na- * ta _|est|
 z2 ED E2 E2 | z2 GF G2 G2 | z2 GG GGGF | A2 A2 z2 FF | FFFE G2 G2 | z2 E/F/E/F/ G>F E2 | %71
w: ur- bem no- stram,|rem et Du- cem,|qui re- dem- psi sunt per|Cru- cem De- i|na- ti an- te lu- cem|fo- * * * * * vent|
 GA BA A3 G | G8 |[M:3/2] z4 C4 D4 | E2 D2 E2 F2 E4 | D2 C2 D2 E2 D4 | E2 D2 E2 F2 E4 | %77
w: qui- * spes _ no- stra|est.|quis- que|gau- * * * *|||
 D2 C2 D2 E2 D4 | E6 D2 C4 | z4 E4 D4 | E6 F2 G4 | G4 ^F4 G4 | G4 z4 z4 | z4 C4 D4 | E6 F2 E4 | %85
w: |* * deat,|quis- que|gau- de- at|vi- * vus|est|Quis- que|gau- de- at|
 E4 D4 E4 |[M:4/4] C2 G A/G/ F3 E | E2 GA BA AB | G2 GA BA AB | G2 GA/G/ F3 E | E2 CD ED DE | %91
w: vi- vus est,|ho di- e _ ho- di-|e Vir- go na- * ta _|est, Vir- go na- * ta _|est, ho- di- e, ho- di-|e, Vir- go na- * tus _|
"^piano" C2 CD ED DE | C2 z2 z4 |] %93
w: est, Vir- go na- * tus- *|est|
V:2
"^BC" C6 C2 B,4 | C6 C2 B,4 | C8 z4 :| C6 C2 B,4 | A,2 A,4 A,2 G,4 | E,4 C,4 D,4 | G,,8 G,,4 | %7
 D,8 B,,4 | C,4 E,4 F,4 | C,4 G,4 G,,4 | C,4 E,4 F,4 | C,4 E,4 G,,4 | C,4 z4 z4 || %13
[M:4/4] z2 C,D, E,F,G,G,, | C,2 C2 A,3 B, | C2 B,2 C2 B,2 | C2 A,2 G,2 G,,2 | A,,2 B,,2 C,2 A,,2 | %18
 F,,2 G,,2 C,2 A,,2 | F,,2 G,,2 C,2 z2 | C,3 D, E,F,G,G,, | C,3 D, E,2 D,2 | G,2 G,,2 A,,2 B,,2 | %23
 C,2 E,,2 F,,2 G,,2 | C,2 B,,2 A,,2 B,,2 | C,2 A,,2 F,,2 G,,2 | C,2 A,,2 F,,2 G,,2 | %27
 C,2 z2 !fermata!z4 || z8 | A,,2 C,2 D,2 E,2 |"^#" A,2 G,2 A,2 B,2 | E,2 B,,2 A,,2 G,,2 | %32
 F,2 D,2 E,3 D, | C,2 A,,2 D,2 C,2 | D,2 E,2 A,2 G,2 | A,2 B,2 C2 A,2 | F,2 G,2 C,2 A,,2 | %37
 F,,2 G,,2 C,2 z2 | C,4 G,4 | G,,4 D,4 | D,4 A,,4- | A,,4 E,4 | ^C,4 D,4 | B,,3 C, D,4 | %44
 G,,2 G,2 A,2 B,2 | C2 B,2 C2 D2 | G,2 B,,2 C,2 D,2 | G,,2 G,2 A,2 B,2 | C2 A,2 F,2 G,2 | %49
 C,2 A,,2 F,,2 G,,2 | C,2 z2 z4 || C,2 B,,2 C,2 D,2 | E,2 C,2 D,2 B,,2 | C,2 D,2 E,2 C,2 | %54
 D,2 G,,2 C,2 CB, | C2 A,2 G,4 | D,4 C,2 B,,2 | C,2 E,2 C,2 D,2 | G,,2 G,2 A,2 B,2 | C2 B,2 C2 D2 | %60
 G,2 B,,2 C,2 D,2 | G,,2 G,2 A,2 B,2 | C2 A,2 F,2 G,2 | C,2 A,,2 F,,2 G,,2 | C,2 z2 z4 | C,8 | %66
 C,8 | C,8 | F,,8- | F,,4 C,4 | C,8 | B,,2 C,2 D,4 | G,,8 |[M:3/2] C,4 C4 B,4 | C12 | G,12 | C,12 | %77
 G,12 | C,12 | C8 B,4 | A,8 G,4 | C4 D8 |"^(-natural)" G,4 G,4 F,4 | E,8 D,4 | C,8 C4 | F,4 G,8 | %86
[M:4/4] C,2 C2 A,2 B,2 | C2 B,2 C2 D2 | G,2 B,2 C2 D2 | G,2 F,2 F,2 G,2 | C2 A,2 F,2 G,2 | %91
 C,2 A,,2 F,,2 G,,2 | C,2 z2 z4 |] %93

